packages/tokens/icons/cartRemove/size24Px.svg

<svg viewBox="0 0 24 24" fill="none" xmlns="http://www.w3.org/2000/svg" width="1em" height="1em"><circle cx="8.5" cy="21.5" r="1" stroke="currentColor"/><circle cx="16.5" cy="21.5" r="1" stroke="currentColor"/><path d="M2.5 6.5H4.5L8 16.5" stroke="currentColor" stroke-linecap="round" stroke-linejoin="round"/><path d="M5.5 8.5L19.6398 8.5C20.3144 8.5 20.7955 9.15434 20.5943 9.79827L18.9386 15.0966C18.6777 15.9315 17.9044 16.5 17.0296 16.5H7.53571C6.98343 16.5 6.53571 16.9477 6.53571 17.5V17.5C6.53571 18.0523 6.98343 18.5 7.53571 18.5H17.7857" stroke="currentColor" stroke-linecap="round"/><path d="M11 4L14 4" stroke="currentColor" stroke-linecap="round"/></svg>

<svg xmlns="http://www.w3.org/2000/svg" fill="none" viewBox="0 0 24 24" width="1em" height="1em"><circle cx="8.5" cy="21.5" r="1" stroke="currentColor"/><circle cx="16.5" cy="21.5" r="1" stroke="currentColor"/><path stroke="currentColor" stroke-linecap="round" stroke-linejoin="round" d="M2.5 6.5h2l3.5 10"/><path stroke="currentColor" stroke-linecap="round" d="M5.5 8.5h14.14a1 1 0 0 1 .954 1.298l-1.655 5.299a2 2 0 0 1-1.91 1.403H7.537a1 1 0 0 0-1 1v0a1 1 0 0 0 1 1h10.25M11 4h3"/></svg>
